Newaita-dark/apps/48/ubiquity-kde.svg

<svg height="48pt" viewBox="0 0 48 48" width="48pt" xmlns="http://www.w3.org/2000/svg" xmlns:xlink="http://www.w3.org/1999/xlink"><linearGradient id="a"><stop offset="0" stop-opacity=".313726"/><stop offset=".222222" stop-opacity=".27451"/><stop offset="1" stop-opacity="0"/></linearGradient><radialGradient id="b" cx="450.908936" cy="189.579361" gradientTransform="matrix(.00000026 -.117199 -.210958 -.00000015 66.784728 95.392994)" gradientUnits="userSpaceOnUse" r="21.166656" xlink:href="#a"/><radialGradient id="c" cx="450.908936" cy="189.579361" gradientTransform="matrix(-.00000026 .117199 .210958 .00000015 -19.155178 -11.291223)" gradientUnits="userSpaceOnUse" r="21.166656" xlink:href="#a"/><radialGradient id="d" cx="450.908936" cy="189.579361" gradientTransform="matrix(-.00000026 -.117199 .210958 -.00000015 -19.155178 95.392994)" gradientUnits="userSpaceOnUse" r="21.166656" xlink:href="#a"/><radialGradient id="e" cx="450.908936" cy="189.579361" gradientTransform="matrix(.00000026 .117199 -.210958 .00000015 66.784725 -11.291224)" gradientUnits="userSpaceOnUse" r="21.166656" xlink:href="#a"/><linearGradient id="f" gradientTransform="matrix(.0200401 0 0 .093759 18.698079 20.158175)" gradientUnits="userSpaceOnUse" x1="255.323059" x2="255.323044" y1="233.5" y2="254.666656"><stop offset="0" stop-opacity=".27451"/><stop offset="1" stop-opacity="0"/></linearGradient><linearGradient id="g" gradientUnits="userSpaceOnUse" x1="23.814786" x2="23.814786" y1="4.34415549995" y2="42.0509005"><stop offset="0" stop-color="#e0e0e0"/><stop offset="1" stop-color="#bdbdbd"/></linearGradient><linearGradient id="h" gradientUnits="userSpaceOnUse" x1="960.000112" x2="960.000112" y1="1255.11822698163" y2="615.118112"><stop offset="0" stop-color="#f5f5f5"/><stop offset="1" stop-color="#e0e0e0"/></linearGradient><linearGradient id="i" gradientUnits="userSpaceOnUse" x1="23.8147925001" x2="23.8147925001" y1="42.1914805" y2="23.33810837501"><stop offset="0" stop-color="#5c6bc0"/><stop offset=".481141" stop-color="#7986cb"/><stop offset=".563308" stop-color="#9fa8da"/><stop offset=".849562" stop-color="#7986cb"/><stop offset=".954825" stop-color="#9fa8da"/><stop offset="1" stop-color="#7986cb"/></linearGradient><path d="m27.289062 42.050781h3.96875v-1.984375h-3.96875zm0 0" fill="url(#b)"/><path d="m20.339844 42.050781h-3.96875v1.984375h3.96875zm0 0" fill="url(#c)"/><path d="m20.339844 42.050781h-3.96875v-1.984375h3.96875zm0 0" fill="url(#d)"/><path d="m27.289062 42.050781h3.96875v1.984375h-3.96875zm0 0" fill="url(#e)"/><path d="m20.339844 41.554688h6.949218v2.480468h-6.949218zm0 0" fill="url(#f)"/><path d="m23.816406 4.34375c-10.445312 0-18.855468 8.410156-18.855468 18.855469 0 10.441406 8.410156 18.851562 18.855468 18.851562 10.441406 0 18.851563-8.410156 18.851563-18.851562 0-10.445313-8.410157-18.855469-18.851563-18.855469zm0 14.882812c2.195313 0 3.96875 1.773438 3.96875 3.972657 0 2.195312-1.773437 3.96875-3.96875 3.96875-2.199218 0-3.972656-1.773438-3.972656-3.96875 0-2.199219 1.773438-3.972657 3.972656-3.972657zm0 0" fill="url(#g)"/><path d="m23.816406 42.050781c-10.445312 0-18.855468-8.410156-18.855468-18.851562 0-.0625 0-.125 0-.1875.101562 10.359375 8.472656 18.667969 18.855468 18.667969 10.382813 0 18.753906-8.308594 18.851563-18.667969v.1875c0 10.441406-8.410157 18.851562-18.851563 18.851562zm0 0" fill-opacity=".196078"/><path d="m23.816406 4.34375c-10.445312 0-18.855468 8.410156-18.855468 18.855469v.183593c.101562-10.359374 8.472656-18.667968 18.855468-18.667968 10.382813 0 18.753906 8.308594 18.851563 18.667968 0-.0625 0-.125 0-.183593 0-10.445313-8.410157-18.855469-18.851563-18.855469zm0 0" fill="#fff" fill-opacity=".588235"/><path d="m11.390625 10.296875c-1.058594 1.082031-1.976563 2.292969-2.730469 3.601563-.757812 1.3125-1.34375 2.710937-1.753906 4.164062l4.015625 1.078125c.617187-2.226563 1.792969-4.253906 3.410156-5.902344zm3.6875 3.6875c-1.488281 1.515625-2.5625 3.382813-3.128906 5.429687l8.550781 2.292969c.167969-.542969.457031-1.039062.839844-1.457031zm12.59375 9.921875c-.082031.269531-.199219.527344-.339844.773438-.140625.246093-.308593.472656-.5.679687l6.269531 6.273437c1.484376-1.519531 2.558594-3.390624 3.125-5.4375zm9.578125 2.5625c-.617188 2.226562-1.789062 4.257812-3.40625 5.90625l2.9375 2.9375c1.058594-1.082031 1.976562-2.289062 2.730469-3.601562.757812-1.308594 1.347656-2.707032 1.753906-4.164063zm0 0" fill="#fff" fill-opacity=".588235"/><path d="m23.816406 4.203125c-10.523437 0-18.996094 8.472656-18.996094 18.996094 0 10.519531 8.472657 18.992187 18.996094 18.992187 10.519532 0 18.992188-8.472656 18.992188-18.992187 0-10.523438-8.472656-18.996094-18.992188-18.996094zm0 .28125c10.367188 0 18.710938 8.34375 18.710938 18.714844 0 10.367187-8.34375 18.710937-18.710938 18.710937-10.371094 0-18.714844-8.34375-18.714844-18.710937 0-10.371094 8.34375-18.714844 18.714844-18.714844zm0 0" fill="#212121"/><path d="m960.065849 615.059407c-177.305912 0-320.126926 142.821015-320.126926 320.126927 0 177.148447 142.821014 319.969461 320.126926 319.969461 177.148447 0 319.969461-142.821014 319.969461-319.969461 0-177.305912-142.821014-320.126927-319.969461-320.126927zm0 159.984731c88.495491 0 159.984731 71.48924 159.984731 160.142196 0 88.495491-71.48924 159.984731-159.984731 159.984731-88.652956 0-160.142196-71.48924-160.142196-159.984731 0-88.652956 71.48924-160.142196 160.142196-160.142196zm0 0" fill="url(#h)" stroke="#333" stroke-linecap="round" stroke-width="11.338583" transform="scale(.0248071)"/><path d="m22.824219 23.339844c-1.101563 0-1.984375.882812-1.984375 1.984375v5.953125h-2.980469c-1.695313 0-2.609375 1.988281-1.503906 3.273437l5.953125 6.949219c.792968.921875 2.222656.921875 3.011718 0l5.953126-6.949219c1.105468-1.285156.191406-3.273437-1.503907-3.273437h-2.976562v-5.953125c0-1.101563-.886719-1.984375-1.984375-1.984375zm0 0" fill="url(#i)"/><path d="m22.824219 23.339844c-1.101563 0-1.984375.882812-1.984375 1.984375v.371093c0-1.101562.882812-1.984374 1.984375-1.984374h1.984375c1.097656 0 1.984375.882812 1.984375 1.984374v-.371093c0-1.101563-.886719-1.984375-1.984375-1.984375zm-4.964844 7.9375c-1.253906 0-2.082031 1.089844-1.976563 2.179687.089844-.953125.867188-1.808593 1.976563-1.808593h2.980469v-.371094zm8.933594 0v.371094h2.976562c1.113281 0 1.886719.855468 1.976563 1.808593.105468-1.089843-.722656-2.179687-1.976563-2.179687zm0 0" fill="#fff" fill-opacity=".392157"/><path d="m15.894531 32.984375c-.078125.527344.054688 1.09375.460938 1.566406l5.953125 6.949219c.792968.921875 2.222656.921875 3.011718 0l5.953126-6.949219c.40625-.472656.539062-1.039062.460937-1.566406-.050781.34375-.199219.6875-.460937.992187l-5.953126 6.945313c-.789062.921875-2.21875.921875-3.011718 0l-5.953125-6.945313c-.261719-.304687-.410157-.648437-.460938-.992187zm0 0" fill-opacity=".235294"/><path d="m22.847656 23.199219c-1.175781 0-2.125.949219-2.125 2.125v5.8125h-2.835937c-1.804688 0-2.789063 2.136719-1.613281 3.507812l5.953124 6.945313c.847657.988281 2.382813.988281 3.226563 0l5.953125-6.945313c1.175781-1.371093.191406-3.507812-1.613281-3.507812h-2.835938v-5.8125c0-1.175781-.949219-2.125-2.125-2.125zm0 .28125h1.984375c1.023438 0 1.84375.816406 1.84375 1.84375v5.953125c0 .078125.0625.140625.140625.140625h2.976563c1.585937 0 2.433593 1.839843 1.402343 3.042969l-5.953124 6.945312c-.738282.859375-2.0625.859375-2.800782 0l-5.953125-6.945312c-1.03125-1.203126-.1875-3.042969 1.398438-3.042969h2.976562c.078125 0 .140625-.0625.140625-.140625v-5.953125c0-1.027344.820313-1.84375 1.84375-1.84375zm0 0" fill="#212121"/></svg>

<?xml version="1.0" encoding="UTF-8"?>
<svg xmlns="http://www.w3.org/2000/svg" xmlns:xlink="http://www.w3.org/1999/xlink" width="48pt" height="48pt" viewBox="0 0 48 48" version="1.1">
<defs>
<radialGradient id="radial0" gradientUnits="userSpaceOnUse" cx="450.908936" cy="189.579361" fx="450.908936" fy="189.579361" r="21.166656" gradientTransform="matrix(0.000000261256,-0.117199,-0.210958,-0.000000152308,66.784728,95.392994)">
<stop offset="0" style="stop-color:rgb(0%,0%,0%);stop-opacity:0.313726;"/>
<stop offset="0.222222" style="stop-color:rgb(0%,0%,0%);stop-opacity:0.27451;"/>
<stop offset="1" style="stop-color:rgb(0%,0%,0%);stop-opacity:0;"/>
</radialGradient>
<radialGradient id="radial1" gradientUnits="userSpaceOnUse" cx="450.908936" cy="189.579361" fx="450.908936" fy="189.579361" r="21.166656" gradientTransform="matrix(-0.000000261256,0.117199,0.210958,0.000000152308,-19.155178,-11.291223)">
<stop offset="0" style="stop-color:rgb(0%,0%,0%);stop-opacity:0.313726;"/>
<stop offset="0.222222" style="stop-color:rgb(0%,0%,0%);stop-opacity:0.27451;"/>
<stop offset="1" style="stop-color:rgb(0%,0%,0%);stop-opacity:0;"/>
</radialGradient>
<radialGradient id="radial2" gradientUnits="userSpaceOnUse" cx="450.908936" cy="189.579361" fx="450.908936" fy="189.579361" r="21.166656" gradientTransform="matrix(-0.000000261256,-0.117199,0.210958,-0.000000152308,-19.155178,95.392994)">
<stop offset="0" style="stop-color:rgb(0%,0%,0%);stop-opacity:0.313726;"/>
<stop offset="0.222222" style="stop-color:rgb(0%,0%,0%);stop-opacity:0.27451;"/>
<stop offset="1" style="stop-color:rgb(0%,0%,0%);stop-opacity:0;"/>
</radialGradient>
<radialGradient id="radial3" gradientUnits="userSpaceOnUse" cx="450.908936" cy="189.579361" fx="450.908936" fy="189.579361" r="21.166656" gradientTransform="matrix(0.000000261256,0.117199,-0.210958,0.000000152308,66.784725,-11.291224)">
<stop offset="0" style="stop-color:rgb(0%,0%,0%);stop-opacity:0.313726;"/>
<stop offset="0.222222" style="stop-color:rgb(0%,0%,0%);stop-opacity:0.27451;"/>
<stop offset="1" style="stop-color:rgb(0%,0%,0%);stop-opacity:0;"/>
</radialGradient>
<linearGradient id="linear0" gradientUnits="userSpaceOnUse" x1="255.323059" y1="233.5" x2="255.323044" y2="254.666656" gradientTransform="matrix(0.0200401,0,0,0.093759,18.698079,20.158175)">
<stop offset="0" style="stop-color:rgb(0%,0%,0%);stop-opacity:0.27451;"/>
<stop offset="1" style="stop-color:rgb(0%,0%,0%);stop-opacity:0;"/>
</linearGradient>
<linearGradient id="linear1" gradientUnits="userSpaceOnUse" x1="254" y1="-168.666672" x2="254" y2="233.5" gradientTransform="matrix(0.093759,0,0,0.093759,0,20.158174)">
<stop offset="0" style="stop-color:rgb(87.843138%,87.843138%,87.843138%);stop-opacity:1;"/>
<stop offset="1" style="stop-color:rgb(74.117649%,74.117649%,74.117649%);stop-opacity:1;"/>
</linearGradient>
<linearGradient id="linear2" gradientUnits="userSpaceOnUse" x1="254" y1="117.083344" x2="254" y2="-52.25" gradientTransform="matrix(3.779528,0,0,3.779528,0,812.59845)">
<stop offset="0" style="stop-color:rgb(96.078432%,96.078432%,96.078432%);stop-opacity:1;"/>
<stop offset="1" style="stop-color:rgb(87.843138%,87.843138%,87.843138%);stop-opacity:1;"/>
</linearGradient>
<linearGradient id="linear3" gradientUnits="userSpaceOnUse" x1="359.833344" y1="233.5" x2="359.833344" y2="32.416668" gradientTransform="matrix(0.093759,0,0,0.093759,-9.922822,20.298754)">
<stop offset="0" style="stop-color:rgb(36.078432%,41.960785%,75.294119%);stop-opacity:1;"/>
<stop offset="0.481141" style="stop-color:rgb(47.450981%,52.549022%,79.607844%);stop-opacity:1;"/>
<stop offset="0.563308" style="stop-color:rgb(62.352943%,65.882355%,85.490197%);stop-opacity:1;"/>
<stop offset="0.849562" style="stop-color:rgb(47.450981%,52.549022%,79.607844%);stop-opacity:1;"/>
<stop offset="0.954825" style="stop-color:rgb(62.352943%,65.882355%,85.490197%);stop-opacity:1;"/>
<stop offset="1" style="stop-color:rgb(47.450981%,52.549022%,79.607844%);stop-opacity:1;"/>
</linearGradient>
</defs>
<g id="surface1">
<path style=" stroke:none;fill-rule:nonzero;fill:url(#radial0);" d="M 27.289062 42.050781 L 31.257812 42.050781 L 31.257812 40.066406 L 27.289062 40.066406 Z M 27.289062 42.050781 "/>
<path style=" stroke:none;fill-rule:nonzero;fill:url(#radial1);" d="M 20.339844 42.050781 L 16.371094 42.050781 L 16.371094 44.035156 L 20.339844 44.035156 Z M 20.339844 42.050781 "/>
<path style=" stroke:none;fill-rule:nonzero;fill:url(#radial2);" d="M 20.339844 42.050781 L 16.371094 42.050781 L 16.371094 40.066406 L 20.339844 40.066406 Z M 20.339844 42.050781 "/>
<path style=" stroke:none;fill-rule:nonzero;fill:url(#radial3);" d="M 27.289062 42.050781 L 31.257812 42.050781 L 31.257812 44.035156 L 27.289062 44.035156 Z M 27.289062 42.050781 "/>
<path style=" stroke:none;fill-rule:nonzero;fill:url(#linear0);" d="M 20.339844 41.554688 L 27.289062 41.554688 L 27.289062 44.035156 L 20.339844 44.035156 Z M 20.339844 41.554688 "/>
<path style=" stroke:none;fill-rule:nonzero;fill:url(#linear1);" d="M 23.816406 4.34375 C 13.371094 4.34375 4.960938 12.753906 4.960938 23.199219 C 4.960938 33.640625 13.371094 42.050781 23.816406 42.050781 C 34.257812 42.050781 42.667969 33.640625 42.667969 23.199219 C 42.667969 12.753906 34.257812 4.34375 23.816406 4.34375 Z M 23.816406 19.226562 C 26.011719 19.226562 27.785156 21 27.785156 23.199219 C 27.785156 25.394531 26.011719 27.167969 23.816406 27.167969 C 21.617188 27.167969 19.84375 25.394531 19.84375 23.199219 C 19.84375 21 21.617188 19.226562 23.816406 19.226562 Z M 23.816406 19.226562 "/>
<path style=" stroke:none;fill-rule:nonzero;fill:rgb(0%,0%,0%);fill-opacity:0.196078;" d="M 23.816406 42.050781 C 13.371094 42.050781 4.960938 33.640625 4.960938 23.199219 C 4.960938 23.136719 4.960938 23.074219 4.960938 23.011719 C 5.0625 33.371094 13.433594 41.679688 23.816406 41.679688 C 34.199219 41.679688 42.570312 33.371094 42.667969 23.011719 C 42.667969 23.074219 42.667969 23.136719 42.667969 23.199219 C 42.667969 33.640625 34.257812 42.050781 23.816406 42.050781 Z M 23.816406 42.050781 "/>
<path style=" stroke:none;fill-rule:nonzero;fill:rgb(100%,100%,100%);fill-opacity:0.588235;" d="M 23.816406 4.34375 C 13.371094 4.34375 4.960938 12.753906 4.960938 23.199219 C 4.960938 23.257812 4.960938 23.320312 4.960938 23.382812 C 5.0625 13.023438 13.433594 4.714844 23.816406 4.714844 C 34.199219 4.714844 42.570312 13.023438 42.667969 23.382812 C 42.667969 23.320312 42.667969 23.257812 42.667969 23.199219 C 42.667969 12.753906 34.257812 4.34375 23.816406 4.34375 Z M 23.816406 4.34375 "/>
<path style=" stroke:none;fill-rule:nonzero;fill:rgb(100%,100%,100%);fill-opacity:0.588235;" d="M 11.390625 10.296875 C 10.332031 11.378906 9.414062 12.589844 8.660156 13.898438 C 7.902344 15.210938 7.316406 16.609375 6.90625 18.0625 L 10.921875 19.140625 C 11.539062 16.914062 12.714844 14.886719 14.332031 13.238281 Z M 15.078125 13.984375 C 13.589844 15.5 12.515625 17.367188 11.949219 19.414062 L 20.5 21.707031 C 20.667969 21.164062 20.957031 20.667969 21.339844 20.25 Z M 27.671875 23.90625 C 27.589844 24.175781 27.472656 24.433594 27.332031 24.679688 C 27.191406 24.925781 27.023438 25.152344 26.832031 25.359375 L 33.101562 31.632812 C 34.585938 30.113281 35.660156 28.242188 36.226562 26.195312 Z M 37.25 26.46875 C 36.632812 28.695312 35.460938 30.726562 33.84375 32.375 L 36.78125 35.3125 C 37.839844 34.230469 38.757812 33.023438 39.511719 31.710938 C 40.269531 30.402344 40.859375 29.003906 41.265625 27.546875 Z M 37.25 26.46875 "/>
<path style=" stroke:none;fill-rule:nonzero;fill:rgb(12.941177%,12.941177%,12.941177%);fill-opacity:1;" d="M 23.816406 4.203125 C 13.292969 4.203125 4.820312 12.675781 4.820312 23.199219 C 4.820312 33.71875 13.292969 42.191406 23.816406 42.191406 C 34.335938 42.191406 42.808594 33.71875 42.808594 23.199219 C 42.808594 12.675781 34.335938 4.203125 23.816406 4.203125 Z M 23.816406 4.484375 C 34.183594 4.484375 42.527344 12.828125 42.527344 23.199219 C 42.527344 33.566406 34.183594 41.910156 23.816406 41.910156 C 13.445312 41.910156 5.101562 33.566406 5.101562 23.199219 C 5.101562 12.828125 13.445312 4.484375 23.816406 4.484375 Z M 23.816406 4.484375 "/>
<path style="fill-rule:nonzero;fill:url(#linear2);stroke-width:11.338583;stroke-linecap:round;stroke-linejoin:miter;stroke:rgb(20%,20%,20%);stroke-opacity:1;stroke-miterlimit:4;" d="M 960.065849 615.059407 C 782.759937 615.059407 639.938923 757.880422 639.938923 935.186334 C 639.938923 1112.334781 782.759937 1255.155795 960.065849 1255.155795 C 1137.214296 1255.155795 1280.03531 1112.334781 1280.03531 935.186334 C 1280.03531 757.880422 1137.214296 615.059407 960.065849 615.059407 Z M 960.065849 775.044138 C 1048.56134 775.044138 1120.05058 846.533378 1120.05058 935.186334 C 1120.05058 1023.681825 1048.56134 1095.171065 960.065849 1095.171065 C 871.412893 1095.171065 799.923653 1023.681825 799.923653 935.186334 C 799.923653 846.533378 871.412893 775.044138 960.065849 775.044138 Z M 960.065849 775.044138 " transform="matrix(0.0248071,0,0,0.0248071,0,0)"/>
<path style=" stroke:none;fill-rule:nonzero;fill:url(#linear3);" d="M 22.824219 23.339844 C 21.722656 23.339844 20.839844 24.222656 20.839844 25.324219 L 20.839844 31.277344 L 17.859375 31.277344 C 16.164062 31.277344 15.25 33.265625 16.355469 34.550781 L 22.308594 41.5 C 23.101562 42.421875 24.53125 42.421875 25.320312 41.5 L 31.273438 34.550781 C 32.378906 33.265625 31.464844 31.277344 29.769531 31.277344 L 26.792969 31.277344 L 26.792969 25.324219 C 26.792969 24.222656 25.90625 23.339844 24.808594 23.339844 Z M 22.824219 23.339844 "/>
<path style=" stroke:none;fill-rule:nonzero;fill:rgb(100%,100%,100%);fill-opacity:0.392157;" d="M 22.824219 23.339844 C 21.722656 23.339844 20.839844 24.222656 20.839844 25.324219 L 20.839844 25.695312 C 20.839844 24.59375 21.722656 23.710938 22.824219 23.710938 L 24.808594 23.710938 C 25.90625 23.710938 26.792969 24.59375 26.792969 25.695312 L 26.792969 25.324219 C 26.792969 24.222656 25.90625 23.339844 24.808594 23.339844 Z M 17.859375 31.277344 C 16.605469 31.277344 15.777344 32.367188 15.882812 33.457031 C 15.972656 32.503906 16.75 31.648438 17.859375 31.648438 L 20.839844 31.648438 L 20.839844 31.277344 Z M 26.792969 31.277344 L 26.792969 31.648438 L 29.769531 31.648438 C 30.882812 31.648438 31.65625 32.503906 31.746094 33.457031 C 31.851562 32.367188 31.023438 31.277344 29.769531 31.277344 Z M 26.792969 31.277344 "/>
<path style=" stroke:none;fill-rule:nonzero;fill:rgb(0%,0%,0%);fill-opacity:0.235294;" d="M 15.894531 32.984375 C 15.816406 33.511719 15.949219 34.078125 16.355469 34.550781 L 22.308594 41.5 C 23.101562 42.421875 24.53125 42.421875 25.320312 41.5 L 31.273438 34.550781 C 31.679688 34.078125 31.8125 33.511719 31.734375 32.984375 C 31.683594 33.328125 31.535156 33.671875 31.273438 33.976562 L 25.320312 40.921875 C 24.53125 41.84375 23.101562 41.84375 22.308594 40.921875 L 16.355469 33.976562 C 16.09375 33.671875 15.945312 33.328125 15.894531 32.984375 Z M 15.894531 32.984375 "/>
<path style=" stroke:none;fill-rule:nonzero;fill:rgb(12.941177%,12.941177%,12.941177%);fill-opacity:1;" d="M 22.847656 23.199219 C 21.671875 23.199219 20.722656 24.148438 20.722656 25.324219 L 20.722656 31.136719 L 17.886719 31.136719 C 16.082031 31.136719 15.097656 33.273438 16.273438 34.644531 L 22.226562 41.589844 C 23.074219 42.578125 24.609375 42.578125 25.453125 41.589844 L 31.40625 34.644531 C 32.582031 33.273438 31.597656 31.136719 29.792969 31.136719 L 26.957031 31.136719 L 26.957031 25.324219 C 26.957031 24.148438 26.007812 23.199219 24.832031 23.199219 Z M 22.847656 23.480469 L 24.832031 23.480469 C 25.855469 23.480469 26.675781 24.296875 26.675781 25.324219 L 26.675781 31.277344 C 26.675781 31.355469 26.738281 31.417969 26.816406 31.417969 L 29.792969 31.417969 C 31.378906 31.417969 32.226562 33.257812 31.195312 34.460938 L 25.242188 41.40625 C 24.503906 42.265625 23.179688 42.265625 22.441406 41.40625 L 16.488281 34.460938 C 15.457031 33.257812 16.300781 31.417969 17.886719 31.417969 L 20.863281 31.417969 C 20.941406 31.417969 21.003906 31.355469 21.003906 31.277344 L 21.003906 25.324219 C 21.003906 24.296875 21.824219 23.480469 22.847656 23.480469 Z M 22.847656 23.480469 "/>
</g>
</svg>
